Sources/FrostedUI/Resources/Icons.xcassets/waveform16.imageset/waveform-16.svg

<svg width="16" height="16" viewBox="0 0 16 16" fill="none" xmlns="http://www.w3.org/2000/svg" data-fui-icon="true">
  <path
    d="M5.5 2.75C5.91421 2.75 6.25 3.08579 6.25 3.5V12.5C6.25 12.9142 5.91421 13.25 5.5 13.25C5.08579 13.25 4.75 12.9142 4.75 12.5V3.5C4.75 3.08579 5.08579 2.75 5.5 2.75ZM10.5 4.25C10.9142 4.25 11.25 4.58579 11.25 5V11C11.25 11.4142 10.9142 11.75 10.5 11.75C10.0858 11.75 9.75 11.4142 9.75 11V5C9.75 4.58579 10.0858 4.25 10.5 4.25ZM8 4.75C8.41421 4.75 8.75 5.08579 8.75 5.5V10.5C8.75 10.9142 8.41421 11.25 8 11.25C7.58579 11.25 7.25 10.9142 7.25 10.5V5.5C7.25 5.08579 7.58579 4.75 8 4.75ZM13 5.75C13.4142 5.75 13.75 6.08579 13.75 6.5V9.5C13.75 9.91421 13.4142 10.25 13 10.25C12.5858 10.25 12.25 9.91421 12.25 9.5V6.5C12.25 6.08579 12.5858 5.75 13 5.75ZM3 6C3.41421 6 3.75 6.33579 3.75 6.75V9.25C3.75 9.66421 3.41421 10 3 10C2.58579 10 2.25 9.66421 2.25 9.25V6.75C2.25 6.33579 2.58579 6 3 6Z"
    fill="currentColor"
  />
</svg>

<svg xmlns="http://www.w3.org/2000/svg" width="16" height="16" fill="none" data-fui-icon="true" viewBox="0 0 16 16"><path fill="currentColor" d="M5.5 2.75a.75.75 0 0 1 .75.75v9a.75.75 0 0 1-1.5 0v-9a.75.75 0 0 1 .75-.75m5 1.5a.75.75 0 0 1 .75.75v6a.75.75 0 0 1-1.5 0V5a.75.75 0 0 1 .75-.75m-2.5.5a.75.75 0 0 1 .75.75v5a.75.75 0 0 1-1.5 0v-5A.75.75 0 0 1 8 4.75m5 1a.75.75 0 0 1 .75.75v3a.75.75 0 0 1-1.5 0v-3a.75.75 0 0 1 .75-.75M3 6a.75.75 0 0 1 .75.75v2.5a.75.75 0 0 1-1.5 0v-2.5A.75.75 0 0 1 3 6"/></svg>
